X: 38832
T: Summer On The Tweed
R: jig
M: 6/8
K: Dmajor
|eff fed|G3/21 GFE|FD A,2 EG|FGE Ace|
fge fdA|G3/21 GFE|FAd fd(g|g)fg age:|
a2 b2 ag|f2 d2 AG|FAd GAd|fd g2 fg|
a2 b2 ag|f2 d2 AG|FdF GAG|FAd fef|
a2 g2 fe|f2 d2 AG|FAd GAd|fd g2 fg|
agf gfe|fe d2 AG|FdF GAG|FAd fef||

